X:1
T:Auf, Auf Mein Herz, 76.76.66.66
T:Auf, Auf Mein Herz, 76.76.66.66
T:Johann Crüger, 1648
T:Public Domain Courtesy of the Cyber Hymnal™
C:Johann Crüger, 1648
Z:Public Domain
Z:Courtesy of the Cyber Hymnal™
%%score ( 1 2 ) ( 3 4 )
L:1/8
M:3/4
K:Eb
V:1 treble 
V:2 treble 
V:3 bass 
V:4 bass 
V:1
 [EB]2 [EG]2 [EB]2 | [EA]4 [EG]2 | F6 | [B,E]4 [EB]2 | (c3 d) [Ee]2 | (d3 c) [Gd]2 | [Ec]6 | %7
 [EB]2 [EG]2 [EB]2 | [EA]4 [EG]2 | F6 | [B,E]4 [EB]2 | (c3 d) [Ee]2 | (d3 c) [Gd]2 | [Ec]6 | %14
 [B,G]2 [B,B]2 [G,E]2 | (D3 E) [B,F]2 | [B,E]6 | [FA]2 [Ec]2 [_DF]2 | (=E3 F) [CG]2 | [CF]4 [DF]2 | %20
 [EG]3 [F=A] [FB]2 | (=A3 B) [Fc]2 | [DB]4 [EB]2 | (c3 d) [Ee]2 | (d3 c) [Fd]2 | [Ge]6 |] %26
V:2
 x6 | x6 | (D3 C D2) | x6 | E4 x2 | G4 x2 | x6 | x6 | x6 | D3 C D2 | x6 | E4 x2 | G4 x2 | x6 | x6 | %15
 B,4 x2 | x6 | x6 | C4 x2 | x6 | x6 | F4 x2 | x6 | E4 x2 | F4 x2 | x6 |] %26
V:3
 [E,G,]2 [E,B,]2 [G,,B,]2 | [A,,C]4 [E,B,]2 | [B,,B,]6 | [E,G,]4 [E,G,]2 | A,4 [C,G,]2 | %5
 (=B,3 =A,) [G,B,]2 | [C,G,]6 | [E,G,]2 [E,B,]2 [G,,B,]2 | [A,,C]4 [E,B,]2 | [B,,B,]6 | %10
 [E,G,]4 [E,G,]2 | A,4 [C,G,]2 | (=B,3 =A,) [G,B,]2 | [C,G,]6 | [E,G,]2 [D,F,]2 [C,E,]2 | %15
 (F,3 E,) [B,,D,]2 | [E,,G,]6 | [F,,C]2 [A,,C]2 [B,,B,]2 | (G,3 F,) [C,=E,]2 | [F,,=A,]4 [B,,B,]2 | %20
 (B,3 C) [D,D]2 | (C3 B,) [F,=A,]2 | [B,,B,]4 [E,G,]2 | A,4 [C,G,]2 | [B,,B,]4 [B,,B,]2 | %25
 [E,B,]6 |] %26
V:4
 x6 | x6 | x6 | x6 | (A,,3 B,,) x2 | G,4 x2 | x6 | x6 | x6 | x6 | x6 | (A,,3 B,,) x2 | G,4 x2 | %13
 x6 | x6 | B,,4 x2 | x6 | x6 | C,4 x2 | x6 | E,4 x2 | F,4 x2 | x6 | (A,,3 B,,) x2 | x6 | x6 |] %26

